X:1
T:Title
%%score { ( 1 3 ) | ( 2 4 ) }
L:1/8
M:4/4
K:F
V:1 treble nm="Grand Piano"
V:3 treble 
V:2 bass 
V:4 bass 
V:1
 z4 z2[Q:1/4=96] F2 | A2 AA G2 FF | A2 c2 c2 F2 | A2 AA c2 AA | [FA]2 [EG]2 [EG]2 F2 | %5
 A2 AA G2 FF |[M:3/4] A2 c2 c2 |[M:1/4] c2 |[M:4/4] d2 dd c2 A[CF] |[M:7/8] [CFA]2 [B,EG]2 [A,F]3 | %10
[M:1/4] [EG][FA] |[M:4/4] [GB]<[GB] [EB]2 [EB]2 G2 | c4 z4 | G c3 ee d2 |[M:9/8] c6- c z z | %15
[M:4/4] A2 A2 c2 FF |[M:9/8] [FB]2 [Fc]- [Fc] [Fd]2- [Fd][DFc][DFB] | %17
[M:4/4] [CFA] [Fc]2 [Fc] [EG]2 [EA]2 |[M:7/8] F-F-F- F- F3 |] %19
V:2
 z4 z2 [F,A,]2 | [F,CF]2 [F,CF][F,CF] [F,B,C]2 [F,A,C][F,A,C] | [F,C]2 [F,A,F]2 [F,A,F]2 [F,A,C]2 | %3
 [F,CF]2 [F,CF][F,CF] [A,CF]2 [F,CF][K:bass][F,CF] | [C,C]2 [C,B,]2 [C,B,]2 [F,A,]2 | %5
 [F,CF]2 [F,CF][F,CF] [F,B,C]2 [F,A,C][F,A,C] |[M:3/4] [F,C]2[K:treble] [F,A,F]2 [F,A,F]2 | %7
[M:1/4] [F,A,F]2 |[M:4/4] [B,F]2 [B,F][B,F] [A,CF]2[K:bass] [F,CF]A,, |[M:7/8] C,2 C,2 F,3 | %10
[M:1/4] [C,C][C,C] |[M:4/4] [C,C]<[C,C] [C,G,]2 [C,G,]2 z2 | %12
 [F,A,F]<[F,A,] [F,A,]2 [F,CF]2 [F,CF][K:treble][F,CF] | [G,CE] [G,EG]3 [G,CG][G,CG] [G,=B,F]2 | %14
[M:9/8][K:bass] z G,C,- C, C,2- C,[C,G,][C,C] |[M:4/4] [F,CF]2 [F,CF]2 [F,A,F]2 [F,A,][E,C] | %16
[M:9/8] [D,B,]2 [C,A,]- [C,A,] [B,,B,]2- [B,,B,]B,,B,, |[M:4/4] C, [C,A,]2 [C,A,] [C,B,]2 [C,C]2 | %18
[M:7/8] [F,A,]2 [F,B,]2 [F,A,]3 |] %19
V:3
 x8 | x8 | x8 | x8 | x8 | x8 |[M:3/4] x6 |[M:1/4] x2 |[M:4/4] x8 |[M:7/8] x7 |[M:1/4] x2 | %11
[M:4/4] x8 | z/ F3/2 F2 A2 AA | x8 |[M:9/8] .[CE]2 [A,F]- [A,F] [B,G]2- [B,G][Ec][EB] |[M:4/4] x8 | %16
[M:9/8] x9 |[M:4/4] x8 |[M:7/8] z2 D2 C3 |] %19
V:4
 x8 | x8 | x8 | x7[K:bass] x | x8 | x8 |[M:3/4] x2[K:treble] x4 |[M:1/4] x2 | %8
[M:4/4] x6[K:bass] x2 |[M:7/8] x7 |[M:1/4] x2 |[M:4/4] x8 | x7[K:treble] x | x8 | %14
[M:9/8][K:bass] .C,3 z3 z3 |[M:4/4] x8 |[M:9/8] x9 |[M:4/4] x8 |[M:7/8] x7 |] %19

